site/web/app/themes/cedreo-designer/assets/icons/vector.svg

<?xml version="1.0" encoding="utf-8"?>
<!-- Generated by IcoMoon.io -->
<!DOCTYPE svg PUBLIC "-//W3C//DTD SVG 1.1//EN" "http://www.w3.org/Graphics/SVG/1.1/DTD/svg11.dtd">
<svg version="1.1" xmlns="http://www.w3.org/2000/svg" xmlns:xlink="http://www.w3.org/1999/xlink" width="32" height="32" viewBox="0 0 32 32">
<path fill="#000" d="M28 24v4h-4v-1h-6v1h-4v-1h-6v1h-4v-4h1v-6h-1v-4h1v-6h-1v-4h4v1h6v-1h4v1h6v-1h4v4h-1v6h1v4h-1v6h1zM15 27h2v-2h-2v2zM5 27h2v-2h-2v2zM5 17h2v-2h-2v2zM7 5h-2v2h2v-2zM17 5h-2v2h2v-2zM24 7h-6v1h-4v-1h-6v1h-1v6h1v4h-1v6h1v1h6v-1h4v1h6v-1h1v-6h-1v-4h1v-6h-1v-1zM27 5h-2v2h2v-2zM27 15h-2v2h2v-2zM25 25v2h2v-2h-2z"></path>
</svg>

<svg xmlns="http://www.w3.org/2000/svg" width="32" height="32" viewBox="0 0 32 32"><path d="M28 24v4h-4v-1h-6v1h-4v-1H8v1H4v-4h1v-6H4v-4h1V8H4V4h4v1h6V4h4v1h6V4h4v4h-1v6h1v4h-1v6h1zm-13 3h2v-2h-2v2zM5 27h2v-2H5v2zm0-10h2v-2H5v2zM7 5H5v2h2V5zm10 0h-2v2h2V5zm7 2h-6v1h-4V7H8v1H7v6h1v4H7v6h1v1h6v-1h4v1h6v-1h1v-6h-1v-4h1V8h-1V7zm3-2h-2v2h2V5zm0 10h-2v2h2v-2zm-2 10v2h2v-2h-2z"/></svg>
